public/themes/EC/images/menu.svg

<svg xmlns="http://www.w3.org/2000/svg" width="512" height="512" viewBox="0 0 512 512"><g data-name="Group 2"><g data-name="Group 1"><path data-name="Path 1" d="M189.217 0H33.38A33.422 33.422 0 0 0 0 33.391v155.826a33.432 33.432 0 0 0 33.391 33.391h155.826a33.432 33.432 0 0 0 33.391-33.391V33.391A33.431 33.431 0 0 0 189.217 0zm11.131 189.217a11.149 11.149 0 0 1-11.13 11.13H33.391a11.149 11.149 0 0 1-11.13-11.13V33.391a11.138 11.138 0 0 1 11.119-11.13h155.837a11.149 11.149 0 0 1 11.13 11.13v155.826z" fill="#231f20"/><path data-name="Path 2" d="M478.609 0H322.783a33.432 33.432 0 0 0-33.391 33.391v155.826a33.432 33.432 0 0 0 33.391 33.391h155.826A33.432 33.432 0 0 0 512 189.217V33.391A33.432 33.432 0 0 0 478.609 0zm11.13 189.217a11.141 11.141 0 0 1-11.13 11.13H322.783a11.141 11.141 0 0 1-11.13-11.13V33.391a11.141 11.141 0 0 1 11.13-11.13h155.826a11.141 11.141 0 0 1 11.13 11.13z" fill="#231f20"/><path data-name="Path 3" d="M189.217 289.391H33.38A33.423 33.423 0 0 0 0 322.783v155.826A33.432 33.432 0 0 0 33.391 512h155.826a33.432 33.432 0 0 0 33.391-33.391V322.783a33.431 33.431 0 0 0-33.391-33.392zm11.131 189.218a11.141 11.141 0 0 1-11.13 11.13H33.391a11.141 11.141 0 0 1-11.13-11.13V322.783a11.131 11.131 0 0 1 11.119-11.13h155.837a11.141 11.141 0 0 1 11.13 11.13v155.826z" fill="#231f20"/><path data-name="Line 1" fill="none" stroke="#231f20" stroke-linecap="round" stroke-width="15" d="M400.696 298.672v204.047"/><path data-name="Line 2" fill="none" stroke="#231f20" stroke-linecap="round" stroke-width="15" d="M502.72 400.695H298.673"/></g></g></svg>

<svg id="app" xmlns="http://www.w3.org/2000/svg" width="512" height="512" viewBox="0 0 512 512">
  <g id="Group_2" data-name="Group 2">
    <g id="Group_1" data-name="Group 1">
      <path id="Path_1" data-name="Path 1" d="M189.217,0H33.38A33.422,33.422,0,0,0,0,33.391V189.217a33.432,33.432,0,0,0,33.391,33.391H189.217a33.432,33.432,0,0,0,33.391-33.391V33.391A33.431,33.431,0,0,0,189.217,0Zm11.131,189.217a11.149,11.149,0,0,1-11.13,11.13H33.391a11.149,11.149,0,0,1-11.13-11.13V33.391A11.138,11.138,0,0,1,33.38,22.261H189.217a11.149,11.149,0,0,1,11.13,11.13V189.217Z" fill="#231f20"/>
      <path id="Path_2" data-name="Path 2" d="M478.609,0H322.783a33.432,33.432,0,0,0-33.391,33.391V189.217a33.432,33.432,0,0,0,33.391,33.391H478.609A33.432,33.432,0,0,0,512,189.217V33.391A33.432,33.432,0,0,0,478.609,0Zm11.13,189.217a11.141,11.141,0,0,1-11.13,11.13H322.783a11.141,11.141,0,0,1-11.13-11.13V33.391a11.141,11.141,0,0,1,11.13-11.13H478.609a11.141,11.141,0,0,1,11.13,11.13Z" fill="#231f20"/>
      <path id="Path_3" data-name="Path 3" d="M189.217,289.391H33.38A33.423,33.423,0,0,0,0,322.783V478.609A33.432,33.432,0,0,0,33.391,512H189.217a33.432,33.432,0,0,0,33.391-33.391V322.783A33.431,33.431,0,0,0,189.217,289.391Zm11.131,189.218a11.141,11.141,0,0,1-11.13,11.13H33.391a11.141,11.141,0,0,1-11.13-11.13V322.783a11.131,11.131,0,0,1,11.119-11.13H189.217a11.141,11.141,0,0,1,11.13,11.13V478.609Z" fill="#231f20"/>
      <line id="Line_1" data-name="Line 1" y2="204.047" transform="translate(400.696 298.672)" fill="none" stroke="#231f20" stroke-linecap="round" stroke-width="15"/>
      <line id="Line_2" data-name="Line 2" y2="204.047" transform="translate(502.72 400.695) rotate(90)" fill="none" stroke="#231f20" stroke-linecap="round" stroke-width="15"/>
    </g>
  </g>
</svg>
